!!!OTL: Der Denemerker Ton.
!!!ARE: Europa, Mitteleuropa, Deutschland
!!!SCT: A0402
!!!TXL: @@DE
!!!YEM: Copyright 1995, estate of Helmut Schaffrath.
**kern	**text
!! Mixed meters:  4/2; 6/2
*M4/2	*
*met(c|)	*
*clefC4	*
*k[]	*
*e:phr	*
=1	=1
!LO:TX:a:t=phryg.	!
1ryy	.
2ryy	.
{2B	Ach
=2	=2
2c	Kar-
2c	-le
2B	groß-
2c	-mech-
=3	=3
2d	-ti-
2c	-ger
1B	man,
=4	=4
2r}	.
{2B	wie
2c	haſt
2B	ain
=5	=5
*M6/2	*
1A	ſpil
2c	ge-
*lig	*
2.B	-fan-
4A	.
*Xlig	*
*lig	*
4G	-gen
4F	.
*Xlig	*
=6	=6
*M4/2	*
1E	an
2r}	.
{2B	on
=7	=7
2c	not
2B	in
2c	deutſchen
2A	.
=8	=8
*lig	*
1.G	lan-
4F	.
4E	.
=9	=9
1D	.
*Xlig	*
1C	-den!
=10	=10
1r}	.
{1C	wolt
=11	=11
*M6/2	*
1G	got
2G	du
1A	herſt
2c	es
=12	=12
*lig	*
2.B	baß
4A	.
*Xlig	*
*lig	*
4G	be-
4F	.
*Xlig	*
2E	-dacht,
2r}	.
{2B	dich
=13	=13
*M4/2	*
2c	ſolchs
2d	nicht
2e	vn-
2d	-der-
=14	=14
1c	-ſtan-
1B	-den,
=15	=15
2G	nicht
1A	vn-
2G	-der-
=16	=16
1F	-ſtan-
1E/ll}	-den.
==	==
!!!GTL: Einige historisch-politische Lieder 
!!!AGN: Romanze, Ballade, Lied, religioeses Lied
!! Einzeldruck von 1546
!!!ONB: ESAC (Essen Associative Code) Database: ALTDEU
!!!AMT: irregular
!!!AIN: vox
!!!EED: Helmut Schaffrath
!!!EEV: 1.0
!!!RDF**kern: l = terminal long
!!!AMD: Phrygian
!!!URL-scan: https://rosdok.uni-rostock.de/mcrviewer/recordIdentifier/rosdok_ppn738218359/iview2/phys_0574.iview2?x=59.00495830516138&y=902.1474999100901&scale=0.7083010262257697&rotation=0&layout=singlePageLayout
!!!ENC: Anna Maria Matuszewska
!!!EEV: 2024/15/03
*-	*-
